X:1
T: Lady Madelina Gordon's Reel
C:William Marshall
R:Reel
Q: 232
K:F
M:4/4
L:1/8
|:CF AF CG BG|CF AF EG EC|CF AF CG BG|cA BG F1/2F1/2F F2|
CF AF CG BG|CF AF EG EC|CF AF CG BG|cA BG F1/2F1/2F F2|
((3fga) fc dB cA|BG AF ((3EFG) EC|Fd Bd Fd Bd|cf eg f1/2f1/2f fg|
af ge fc dB|cA BG ((3EFG) EC|CF AF CG BG|cA BG F1/2F1/2F F2:|
